X:129
M:6/8
L:1/8
K:Bb
|: fff f2_A | G_AF G2E | ggg g2G | ABG A2F | ddd def | ccc cde | fdB ecA | FGA B3 :|

